**kern
*clefF4
*k[]
*M4/4
=1
*^
2G	1C 1C 1E
2A-X	.
=2	=2
2E 2G	2BB-X 2D-X
2F 2F	2AA-X 2C
=3||	=3||
2G	1C 1E 1E
2G#X	.
=4	=4
2E-X 2F#X 2A	2C
2G 2B	2GG 2D
=5||	=5||
2G	1C 1C 1E
[2G#X	.
=6	=6
2G#]	2BB 2D
2A	2C 2C
=7||	=7||
1E 1G#X	2r
.	2CC 2C
=8	=8
2E#X 2G#X	2CC#X 2BB
2F#X 2A	2FF#X 2AA
!!linebreak:original
=9||	=9||
1EE 1C 1c	2GG
.	2GG#X
=10	=10
2C 2F#X	2DD 2AA
2G	2GG 2BB 2BB
=11||	=11||
2G	1C 1C 1E
2G#X	.
=12	=12
2E-X 2A	2FF 2C
2D 2B-X	2BBB-X 2BB-X
*v	*v
==
*-
!!!system-decoration: [(s1
